svg/emoji_u1f9fd.svg

<svg xmlns="http://www.w3.org/2000/svg" xmlns:xlink="http://www.w3.org/1999/xlink" width="128" height="128"><path d="M62.209 28.286c-5.695 0-13.328 3.425-17.116 7.678l-32.271 36.23c-1.894 2.126-1.847 3.57-1.835 5.433v28.571c0 1.52 2.429 2.244 5.276 2.244H64.93c5.695 0 13.33-3.425 17.118-7.678l32.27-36.23c1.893-2.126 1.71-2.859 1.834-5.433v-28.57c0-1.522-2.429-2.245-5.276-2.245z" fill="#fdcf25" stroke-width="10" stroke-linecap="round" stroke-linejoin="round" paint-order="stroke fill markers"/><rect width="69.225" height="69.078" x="77.123" y="37.88" rx="10.28" transform="skewX(-41.692) scale(1 .74673)" fill="#e3cd31" stroke-width="11.572" stroke-linecap="round" stroke-linejoin="round" paint-order="stroke fill markers"/><rect transform="skewX(-41.692) scale(1 .74673)" rx="10.28" y="37.88" x="77.123" height="69.078" width="69.225" fill="#ffe215" stroke-width="11.572" stroke-linecap="round" stroke-linejoin="round" paint-order="stroke fill markers"/><ellipse id="a" cx="29.914" cy="70.425" rx="6.338" ry="3.794" fill-opacity=".22" stroke-width="10" stroke-linecap="round" stroke-linejoin="round" paint-order="stroke fill markers"/><use xlink:href="#a" transform="scale(1.1418) rotate(2.609 786.832 392.127)" width="100%" height="100%" stroke-width=".876" fill-opacity=".22"/><use xlink:href="#a" transform="matrix(.81032 -.02606 .02606 .81032 45.707 .04)" width="100%" height="100%" stroke-width="1.233" fill-opacity=".22"/><use xlink:href="#a" transform="matrix(.86415 -.036 .036 .86415 31.62 -26.4)" width="100%" height="100%" stroke-width="1.156" fill-opacity=".22"/><use xlink:href="#a" transform="rotate(1.523 1979.228 2425.193) scale(1.23867)" width="100%" height="100%" stroke-width=".807" fill-opacity=".22"/><use xlink:href="#a" transform="matrix(.70862 -.02967 .02967 .70862 60.287 -14.43)" width="100%" height="100%" stroke-width="1.41" fill-opacity=".22"/><use xlink:href="#a" transform="matrix(1.25997 -.03418 .03418 1.25997 46.356 -40.918)" width="100%" height="100%" stroke-width=".793" fill-opacity=".22"/><use xlink:href="#a" transform="rotate(2.422 -337.492 1472.092) scale(.68143)" width="100%" height="100%" stroke-width="1.468" fill-opacity=".22"/><use xlink:href="#a" transform="matrix(.6637 .00449 -.00449 .6637 19.128 28.086)" width="100%" height="100%" stroke-width="1.507" fill-opacity=".22"/><use xlink:href="#a" transform="matrix(.63058 -.03212 .03212 .63058 20.734 24.27)" width="100%" height="100%" stroke-width="1.584" fill-opacity=".22"/><use xlink:href="#a" transform="matrix(.67737 -.01452 .01452 .67737 14.827 10.983)" width="100%" height="100%" stroke-width="1.476" fill-opacity=".22"/><use xlink:href="#a" transform="rotate(2.004 792.504 1022.544) scale(1.04596)" width="100%" height="100%" stroke-width=".956" fill-opacity=".22"/><use xlink:href="#a" transform="matrix(.7274 -.00956 .00956 .7274 50.82 21.64)" width="100%" height="100%" stroke-width="1.375" fill-opacity=".22"/><use xlink:href="#a" transform="matrix(1.01707 -.0089 .0089 1.01707 21.947 -7.24)" width="100%" height="100%" stroke-width=".983" fill-opacity=".22"/><use xlink:href="#a" transform="rotate(.716 -941.45 3499.855) scale(.75777)" width="100%" height="100%" stroke-width="1.32" fill-opacity=".22"/><use xlink:href="#a" transform="scale(.81253) rotate(3.12 498.732 1136.607)" width="100%" height="100%" stroke-width="1.231" fill-opacity=".22"/><use xlink:href="#a" transform="matrix(.71747 .002 -.002 .71747 -1.358 25.13)" width="100%" height="100%" stroke-width="1.394" fill-opacity=".22"/><use xlink:href="#a" transform="matrix(.73995 -.01268 .01268 .73995 31.74 1.196)" width="100%" height="100%" stroke-width="1.351" fill-opacity=".22"/><use xlink:href="#a" transform="rotate(-2.881 -353.719 -206.22) scale(1.33956)" width="100%" height="100%" stroke-width=".747" fill-opacity=".22"/><use xlink:href="#a" transform="rotate(2.34 211.662 517.056) scale(.81965)" width="100%" height="100%" stroke-width="1.22" fill-opacity=".22"/><use xlink:href="#a" transform="rotate(3.461 -86.877 1169.052) scale(.69022)" width="100%" height="100%" stroke-width="1.449" fill-opacity=".22"/><ellipse id="b" cx="15.797" cy="84.457" rx="3.186" ry="2.965" fill-opacity=".22" stroke-width="10" stroke-linecap="round" stroke-linejoin="round" paint-order="stroke fill markers"/><use xlink:href="#b" transform="matrix(.7685 -.03056 .03056 .7685 3.617 27.88)" width="100%" height="100%" stroke-width="1.3" fill-opacity=".22"/><use xlink:href="#b" transform="rotate(1.696 -304.758 461.57) scale(.91009)" width="100%" height="100%" stroke-width="1.099" fill-opacity=".22"/><use xlink:href="#b" transform="rotate(-1.896 1223.075 -420.075) scale(.75449)" width="100%" height="100%" stroke-width="1.325" fill-opacity=".22"/><use xlink:href="#b" transform="rotate(.649 -4245.457 1911.245) scale(.53141)" width="100%" height="100%" stroke-width="1.882" fill-opacity=".22"/><use xlink:href="#b" transform="rotate(1.409 -578.623 1795.132) scale(1.0557)" width="100%" height="100%" stroke-width=".947" fill-opacity=".22"/><use xlink:href="#b" transform="matrix(.56065 -.00483 .00483 .56065 29.078 35.18)" width="100%" height="100%" stroke-width="1.784" fill-opacity=".22"/><use xlink:href="#b" transform="rotate(-3.212 329.406 -279.988) scale(.97435)" width="100%" height="100%" stroke-width="1.026" fill-opacity=".22"/><use id="c" xlink:href="#b" transform="rotate(-.893 2787.143 -631.46) scale(.64545)" width="100%" height="100%" stroke-width="1.549" fill-opacity=".22"/><use xlink:href="#b" transform="matrix(1.01305 -.00705 .00705 1.01305 52.148 6.274)" width="100%" height="100%" stroke-width=".987" fill-opacity=".22"/><use xlink:href="#b" transform="matrix(.8274 -.03727 .03727 .8274 51.147 31.55)" width="100%" height="100%" stroke-width="1.207" fill-opacity=".22"/><use xlink:href="#b" transform="rotate(2.871 -386.257 686.96) scale(.88005)" width="100%" height="100%" stroke-width="1.136" fill-opacity=".22"/><use xlink:href="#b" transform="rotate(-3.042 271.956 -355.796) scale(.90774)" width="100%" height="100%" stroke-width="1.102" fill-opacity=".22"/><use xlink:href="#b" transform="rotate(-2.972 -289.994 -588.296) scale(1.33694)" width="100%" height="100%" stroke-width=".748" fill-opacity=".22"/><use xlink:href="#b" transform="scale(1.10553) rotate(3.32 -136.01 566.044)" width="100%" height="100%" stroke-width=".905" fill-opacity=".22"/><use xlink:href="#b" transform="matrix(1.11155 .05134 -.05134 1.11155 3.103 9.578)" width="100%" height="100%" stroke-width=".899" fill-opacity=".22"/><use xlink:href="#b" transform="matrix(1.11137 .00302 -.00302 1.11137 39.958 -10.115)" width="100%" height="100%" stroke-width=".9" fill-opacity=".22"/><use xlink:href="#b" transform="rotate(2.968 143.245 672.255) scale(1.10228)" width="100%" height="100%" stroke-width=".907" fill-opacity=".22"/><use xlink:href="#c" transform="matrix(.88908 .05888 -.04571 1.14516 59.651 -11.108)" width="100%" height="100%" stroke-width=".99" fill-opacity=".22"/><use xlink:href="#c" transform="matrix(.88009 -.00051 .00051 .88009 48.039 -3.142)" width="100%" height="100%" stroke-width="1.136" fill-opacity=".22"/><use xlink:href="#c" transform="matrix(1.0189 -.20697 .23645 1.2971 29.231 -39.276)" width="100%" height="100%" stroke-width=".854" fill-opacity=".22"/><use xlink:href="#c" transform="rotate(-3.455 554.934 -746.676) scale(.59772)" width="100%" height="100%" stroke-width="1.673" fill-opacity=".22"/><use height="100%" width="100%" transform="matrix(1.0189 -.26823 .23645 1.68101 35.468 -78.357)" xlink:href="#c" stroke-width=".75" fill-opacity=".22"/><use xlink:href="#c" transform="matrix(.8577 -.22925 .19904 1.4367 38.428 -45.02)" width="100%" height="100%" stroke-width=".885" fill-opacity=".22"/><use height="100%" width="100%" transform="matrix(.92218 -.22925 .214 1.4367 39.657 -38.51)" xlink:href="#c" stroke-width=".853" fill-opacity=".22"/><use height="100%" width="100%" transform="matrix(.72446 .04433 -.03725 .86217 61.987 10.82)" xlink:href="#c" stroke-width="1.264" fill-opacity=".22"/><use id="d" xlink:href="#c" transform="matrix(.59981 -.26823 .1392 1.68101 85.982 -113.07)" width="100%" height="100%" stroke-width=".978" fill-opacity=".22"/><use xlink:href="#d" transform="translate(-4.353 32.73) scale(.85519)" width="100%" height="100%" stroke-width="1.169" fill-opacity=".22"/><use xlink:href="#d" transform="matrix(1.0044 -.01692 .01692 1.0044 -9.502 21.99)" width="100%" height="100%" stroke-width=".995" fill-opacity=".22"/><use xlink:href="#d" transform="scale(1.02018) rotate(-2.996 418.22 442.168)" width="100%" height="100%" stroke-width=".98" fill-opacity=".22"/><use xlink:href="#d" transform="rotate(-3.217 1017.315 -582.212) scale(.5532)" width="100%" height="100%" stroke-width="1.808" fill-opacity=".22"/><use xlink:href="#d" transform="rotate(-2.118 438.366 -283.456) scale(.86301)" width="100%" height="100%" stroke-width="1.159" fill-opacity=".22"/><use xlink:href="#d" transform="matrix(.7303 .01436 -.01436 .7303 29.903 24.04)" width="100%" height="100%" stroke-width="1.369" fill-opacity=".22"/><use xlink:href="#d" transform="rotate(1.834 -1172.866 -361.876) scale(.92833)" width="100%" height="100%" stroke-width="1.077" fill-opacity=".22"/><use xlink:href="#d" transform="rotate(-.797 2335.13 -2548.993) scale(.60606)" width="100%" height="100%" stroke-width="1.65" fill-opacity=".22"/><use xlink:href="#d" transform="matrix(.7384 .004 -.004 .7384 22.218 18.376)" width="100%" height="100%" stroke-width="1.354" fill-opacity=".22"/><use xlink:href="#d" transform="matrix(.82053 .03488 -.03488 .82053 5.838 30.332)" width="100%" height="100%" stroke-width="1.218" fill-opacity=".22"/><use xlink:href="#d" transform="rotate(2.388 -786.833 -507.76) scale(.96347)" width="100%" height="100%" stroke-width="1.038" fill-opacity=".22"/><use xlink:href="#d" transform="matrix(1.07582 -.04765 .04765 1.07582 -9.47 9.503)" width="100%" height="100%" stroke-width=".929" fill-opacity=".22"/><use xlink:href="#d" transform="scale(.9993) rotate(-.452 2356.086 609.844)" width="100%" height="100%" stroke-width="1.001" fill-opacity=".22"/><use id="e" xlink:href="#d" transform="matrix(1.23032 .00556 -.00556 1.23032 -38.541 6.626)" width="100%" height="100%" stroke-width=".813" fill-opacity=".22"/><use xlink:href="#d" transform="matrix(.72155 .015 -.015 .72155 13.789 45.161)" width="100%" height="100%" stroke-width="1.386" fill-opacity=".22"/><use xlink:href="#e" transform="rotate(-2.862 114.507 326.964) scale(1.14173)" width="100%" height="100%" stroke-width=".876" fill-opacity=".22"/><use xlink:href="#e" transform="matrix(1.29502 -.00914 .01067 1.10977 -48.362 19.328)" width="100%" height="100%" stroke-width=".834" fill-opacity=".22"/><use xlink:href="#e" transform="rotate(2.266 -583.542 -238.902) scale(.99236)" width="100%" height="100%" stroke-width="1.008" fill-opacity=".22"/><use xlink:href="#e" transform="matrix(.88174 -.0169 .02098 .7099 20.087 2.272)" width="100%" height="100%" stroke-width="1.264" fill-opacity=".22"/><use xlink:href="#e" transform="matrix(.57297 -.00828 .00828 .57297 39.082 23.561)" width="100%" height="100%" stroke-width="1.745" fill-opacity=".22"/><use xlink:href="#e" transform="scale(1.24717) rotate(-.816 -279.12 2147.422)" width="100%" height="100%" stroke-width=".802" fill-opacity=".22"/><use xlink:href="#e" transform="matrix(.98044 .00706 -.00825 .83879 3.77 1.435)" width="100%" height="100%" stroke-width="1.103" fill-opacity=".22"/></svg>

<?xml version="1.0" encoding="UTF-8" standalone="no"?>
<!DOCTYPE svg PUBLIC "-//W3C//DTD SVG 1.1//EN" "http://www.w3.org/Graphics/SVG/1.1/DTD/svg11.dtd">
<svg width="100%" height="100%" viewBox="0 0 128 128" version="1.1" xmlns="http://www.w3.org/2000/svg" xmlns:xlink="http://www.w3.org/1999/xlink" xml:space="preserve" xmlns:serif="http://www.serif.com/" style="fill-rule:evenodd;clip-rule:evenodd;stroke-linejoin:round;stroke-miterlimit:2;">
    <path d="M62.209,28.286C56.514,28.286 48.881,31.711 45.093,35.964L12.822,72.194C10.928,74.32 10.975,75.764 10.987,77.627L10.987,106.198C10.987,107.718 13.416,108.442 16.263,108.442L64.93,108.442C70.625,108.442 78.26,105.017 82.048,100.764L114.318,64.534C116.211,62.408 116.028,61.675 116.152,59.101L116.152,30.531C116.152,29.009 113.723,28.286 110.876,28.286L62.209,28.286Z" style="fill:rgb(253,207,37);fill-rule:nonzero;"/>
    <g transform="matrix(1,0,-0.665125,0.74673,0,0)">
        <path d="M146.348,51.647C146.348,44.049 141.742,37.88 136.068,37.88L87.403,37.88C81.729,37.88 77.123,44.049 77.123,51.647L77.123,93.191C77.123,100.789 81.729,106.958 87.403,106.958L136.068,106.958C141.742,106.958 146.348,100.789 146.348,93.191L146.348,51.647Z" style="fill:rgb(227,205,49);"/>
    </g>
    <g transform="matrix(1,0,-0.665125,0.74673,0,0)">
        <path d="M146.348,51.647C146.348,44.049 141.742,37.88 136.068,37.88L87.403,37.88C81.729,37.88 77.123,44.049 77.123,51.647L77.123,93.191C77.123,100.789 81.729,106.958 87.403,106.958L136.068,106.958C141.742,106.958 146.348,100.789 146.348,93.191L146.348,51.647Z" style="fill:rgb(255,226,21);"/>
    </g>
    <ellipse id="a" cx="29.914" cy="70.425" rx="6.338" ry="3.794" style="fill:rgb(247,147,41);fill-opacity:0.53;"/>
    <g id="a1" serif:id="a" transform="matrix(1.14062,0.0519746,-0.0519746,1.14062,21.3119,-40.4312)">
        <ellipse cx="29.914" cy="70.425" rx="6.338" ry="3.794" style="fill:rgb(247,147,41);fill-opacity:0.53;"/>
    </g>
    <g id="a2" serif:id="a" transform="matrix(0.81032,-0.02606,0.02606,0.81032,45.707,0.04)">
        <ellipse cx="29.914" cy="70.425" rx="6.338" ry="3.794" style="fill:rgb(247,147,41);fill-opacity:0.53;"/>
    </g>
    <g id="a3" serif:id="a" transform="matrix(0.86415,-0.036,0.036,0.86415,31.62,-26.4)">
        <ellipse cx="29.914" cy="70.425" rx="6.338" ry="3.794" style="fill:rgb(247,147,41);fill-opacity:0.53;"/>
    </g>
    <g id="a4" serif:id="a" transform="matrix(1.23823,0.0329217,-0.0329217,1.23823,65.1565,-51.7477)">
        <ellipse cx="29.914" cy="70.425" rx="6.338" ry="3.794" style="fill:rgb(247,147,41);fill-opacity:0.53;"/>
    </g>
    <g id="a5" serif:id="a" transform="matrix(0.70862,-0.02967,0.02967,0.70862,60.287,-14.43)">
        <ellipse cx="29.914" cy="70.425" rx="6.338" ry="3.794" style="fill:rgb(247,147,41);fill-opacity:0.53;"/>
    </g>
    <g id="a6" serif:id="a" transform="matrix(1.25997,-0.03418,0.03418,1.25997,46.356,-40.918)">
        <ellipse cx="29.914" cy="70.425" rx="6.338" ry="3.794" style="fill:rgb(247,147,41);fill-opacity:0.53;"/>
    </g>
    <g id="a7" serif:id="a" transform="matrix(0.67737,-0.01452,0.01452,0.67737,14.827,10.983)">
        <ellipse cx="29.914" cy="70.425" rx="6.338" ry="3.794" style="fill:rgb(247,147,41);fill-opacity:0.53;"/>
    </g>
    <g id="a8" serif:id="a" transform="matrix(1.04532,0.0365765,-0.0365765,1.04532,36.2423,-27.0879)">
        <ellipse cx="29.914" cy="70.425" rx="6.338" ry="3.794" style="fill:rgb(247,147,41);fill-opacity:0.53;"/>
    </g>
    <g id="a9" serif:id="a" transform="matrix(0.7274,-0.00956,0.00956,0.7274,50.82,21.64)">
        <ellipse cx="29.914" cy="70.425" rx="6.338" ry="3.794" style="fill:rgb(247,147,41);fill-opacity:0.53;"/>
    </g>
    <g id="a10" serif:id="a" transform="matrix(1.01707,-0.0089,0.0089,1.01707,21.947,-7.24)">
        <ellipse cx="29.914" cy="70.425" rx="6.338" ry="3.794" style="fill:rgb(247,147,41);fill-opacity:0.53;"/>
    </g>
    <g id="a11" serif:id="a" transform="matrix(0.71747,0.002,-0.002,0.71747,-1.358,25.13)">
        <ellipse cx="29.914" cy="70.425" rx="6.338" ry="3.794" style="fill:rgb(247,147,41);fill-opacity:0.53;"/>
    </g>
    <g id="a12" serif:id="a" transform="matrix(1.33787,-0.0673286,0.0673286,1.33787,9.91791,-18.0392)">
        <ellipse cx="29.914" cy="70.425" rx="6.338" ry="3.794" style="fill:rgb(247,147,41);fill-opacity:0.53;"/>
    </g>
    <g id="a13" serif:id="a" transform="matrix(0.818967,0.0334658,-0.0334658,0.818967,21.2876,-8.21087)">
        <ellipse cx="29.914" cy="70.425" rx="6.338" ry="3.794" style="fill:rgb(247,147,41);fill-opacity:0.53;"/>
    </g>
    <g id="a14" serif:id="a" transform="matrix(0.688961,0.041668,-0.041668,0.688961,70.4162,7.3769)">
        <ellipse cx="29.914" cy="70.425" rx="6.338" ry="3.794" style="fill:rgb(247,147,41);fill-opacity:0.53;"/>
    </g>
    <ellipse id="b" cx="15.797" cy="84.457" rx="3.186" ry="2.965" style="fill:rgb(247,147,41);fill-opacity:0.53;"/>
    <g id="b1" serif:id="b" transform="matrix(0.7685,-0.03056,0.03056,0.7685,3.617,27.88)">
        <ellipse cx="15.797" cy="84.457" rx="3.186" ry="2.965" style="fill:rgb(247,147,41);fill-opacity:0.53;"/>
    </g>
    <g id="b2" serif:id="b" transform="matrix(0.909691,0.0269354,-0.0269354,0.909691,13.5273,9.22196)">
        <ellipse cx="15.797" cy="84.457" rx="3.186" ry="2.965" style="fill:rgb(247,147,41);fill-opacity:0.53;"/>
    </g>
    <g id="b3" serif:id="b" transform="matrix(0.754077,-0.0249626,0.0249626,0.754077,14.5679,40.236)">
        <ellipse cx="15.797" cy="84.457" rx="3.186" ry="2.965" style="fill:rgb(247,147,41);fill-opacity:0.53;"/>
    </g>
    <g id="b4" serif:id="b" transform="matrix(1.05538,0.0259588,-0.0259588,1.05538,43.9659,14.7707)">
        <ellipse cx="15.797" cy="84.457" rx="3.186" ry="2.965" style="fill:rgb(247,147,41);fill-opacity:0.53;"/>
    </g>
    <g id="b5" serif:id="b" transform="matrix(0.972819,-0.0545934,0.0545934,0.972819,16.2054,18.017)">
        <ellipse cx="15.797" cy="84.457" rx="3.186" ry="2.965" style="fill:rgb(247,147,41);fill-opacity:0.53;"/>
    </g>
    <g id="b6" serif:id="b" transform="matrix(1.01305,-0.00705,0.00705,1.01305,52.148,6.274)">
        <ellipse cx="15.797" cy="84.457" rx="3.186" ry="2.965" style="fill:rgb(247,147,41);fill-opacity:0.53;"/>
    </g>
    <g id="b7" serif:id="b" transform="matrix(0.8274,-0.03727,0.03727,0.8274,51.147,31.55)">
        <ellipse cx="15.797" cy="84.457" rx="3.186" ry="2.965" style="fill:rgb(247,147,41);fill-opacity:0.53;"/>
    </g>
    <g id="b8" serif:id="b" transform="matrix(0.906461,-0.0481719,0.0481719,0.906461,19.2646,13.9308)">
        <ellipse cx="15.797" cy="84.457" rx="3.186" ry="2.965" style="fill:rgb(247,147,41);fill-opacity:0.53;"/>
    </g>
    <g id="b9" serif:id="b" transform="matrix(1.33514,-0.0693176,0.0693176,1.33514,30.1119,-15.8269)">
        <ellipse cx="15.797" cy="84.457" rx="3.186" ry="2.965" style="fill:rgb(247,147,41);fill-opacity:0.53;"/>
    </g>
    <g id="b10" serif:id="b" transform="matrix(1.10367,0.064024,-0.064024,1.10367,35.9881,9.75817)">
        <ellipse cx="15.797" cy="84.457" rx="3.186" ry="2.965" style="fill:rgb(247,147,41);fill-opacity:0.53;"/>
    </g>
    <g id="b11" serif:id="b" transform="matrix(1.1008,0.0570741,-0.0570741,1.1008,35.0003,-6.51521)">
        <ellipse cx="15.797" cy="84.457" rx="3.186" ry="2.965" style="fill:rgb(247,147,41);fill-opacity:0.53;"/>
    </g>
    <g id="b12" serif:id="b" transform="matrix(0.72446,0.04433,-0.03725,0.86217,61.987,10.82)">
        <ellipse cx="15.797" cy="84.457" rx="3.186" ry="2.965" style="fill:rgb(247,147,41);fill-opacity:0.53;"/>
    </g>
</svg>
